copytrade/img/icomoon/whatsapp.svg

<svg width="20" height="20" viewBox="0 0 20 20" fill="none" xmlns="http://www.w3.org/2000/svg">
<path fill-rule="evenodd" clip-rule="evenodd" d="M14.2248 5.06864C13.0203 4.04132 11.4824 3.48886 9.89955 3.51495C8.3167 3.54103 6.79778 4.14386 5.62784 5.21031C4.4579 6.27675 3.71736 7.7335 3.54519 9.30717C3.37303 10.8808 3.78108 12.4633 4.69277 13.7574C4.89362 14.0425 4.93142 14.4117 4.79252 14.7316L4.15994 16.1885L6.53313 15.7655C6.74217 15.7283 6.95763 15.7585 7.14833 15.8519C8.57011 16.548 10.1971 16.7014 11.7239 16.2831C13.2507 15.8649 14.5724 14.9038 15.441 13.5803C16.3095 12.2568 16.6652 10.6618 16.4413 9.09467C16.2174 7.52752 15.4292 6.09596 14.2248 5.06864ZM2.38385 18.4935C2.48681 18.5056 2.58978 18.5013 2.68929 18.4821L6.57339 17.7899C8.35829 18.578 10.3639 18.7293 12.2523 18.2121C14.2489 17.6651 15.9773 16.4084 17.1131 14.6776C18.2489 12.9469 18.714 10.8611 18.4212 8.81178C18.1284 6.76244 17.0977 4.8904 15.5227 3.54698C13.9476 2.20356 11.9365 1.48111 9.8666 1.51522C7.79672 1.54933 5.81044 2.33764 4.28052 3.73223C2.75059 5.12681 1.78219 7.03179 1.55706 9.08967C1.35278 10.9569 1.77315 12.8334 2.74336 14.4294L1.58849 17.0891C1.54676 17.1814 1.51881 17.2806 1.50679 17.3836C1.49225 17.5072 1.50131 17.6309 1.53158 17.7485C1.56712 17.8877 1.63089 18.0133 1.71554 18.1202C1.87842 18.3259 2.11862 18.4625 2.38385 18.4935Z" fill="#282C33"/>
<path fill-rule="evenodd" clip-rule="evenodd" d="M6.91493 6.49826C7.18061 6.23259 7.54095 6.08333 7.91667 6.08333C8.29239 6.08333 8.65272 6.23259 8.9184 6.49826C9.18408 6.76394 9.33333 7.12428 9.33333 7.5V8.33333C9.33333 8.70905 9.18408 9.06939 8.9184 9.33507C8.85764 9.39582 8.79194 9.45049 8.72222 9.49868C8.87998 9.89726 9.11851 10.2635 9.4275 10.5725C9.73648 10.8815 10.1027 11.12 10.5013 11.2778C10.5495 11.2081 10.6042 11.1424 10.6649 11.0816C10.9306 10.8159 11.2909 10.6667 11.6667 10.6667H12.5C12.8757 10.6667 13.2361 10.8159 13.5017 11.0816C13.7674 11.3473 13.9167 11.7076 13.9167 12.0833C13.9167 12.4591 13.7674 12.8194 13.5017 13.0851C13.2361 13.3507 12.8757 13.5 12.5 13.5H11.6667C10.2964 13.5 8.98222 12.9557 8.01328 11.9867C7.04434 11.0178 6.5 9.70362 6.5 8.33333V7.5C6.5 7.12428 6.64925 6.76394 6.91493 6.49826ZM8.32491 7.91667C8.21594 7.80989 8.06939 7.75 7.91667 7.75C7.76395 7.75 7.6174 7.80989 7.50842 7.91667C7.6174 8.02344 7.76395 8.08333 7.91667 8.08333C8.06939 8.08333 8.21594 8.02344 8.32491 7.91667Z" fill="#282C33"/>
</svg>

<svg width="20" height="20" fill="none" xmlns="http://www.w3.org/2000/svg"><path fill-rule="evenodd" clip-rule="evenodd" d="M14.225 5.069a6.5 6.5 0 00-9.532 8.688 1 1 0 01.1.975l-.633 1.457 2.373-.424a1 1 0 01.615.087 6.5 6.5 0 007.077-10.783zM2.384 18.494a.997.997 0 00.305-.012l3.884-.692a8.5 8.5 0 10-3.83-3.36l-1.155 2.66a.995.995 0 00.128 1.03 1 1 0 00.668.373z" fill="#282C33"/><path fill-rule="evenodd" clip-rule="evenodd" d="M6.915 6.498A1.417 1.417 0 019.333 7.5v.833a1.417 1.417 0 01-.61 1.166 3.166 3.166 0 001.778 1.779 1.417 1.417 0 011.165-.611h.834a1.416 1.416 0 110 2.833h-.833A5.166 5.166 0 016.5 8.333V7.5c0-.376.15-.736.415-1.002zm1.41 1.419a.583.583 0 00-.817 0 .583.583 0 00.817 0z" fill="#282C33"/></svg>
